X:1
T:Burns and his Highland Mary
M:2/2
L:1/4
K:F
 C| F3/2- G/2 A B| c2 B c| f2 _e c|G/2-F/2 F2| _E| F3/2- G/2 A B| c2 B c|\
 f2 _ed/2-B/2| c2 A- B| c2c/2-B/2 A| B2 c c| F3/2- G/2 A G| F _E/2 z/2 c3/2- d/4_e/4|\
 f- f3/4- _e/4 c _d| c/2- B3/2 B c| B3/2-A/4-F/4 F- F3/4 F/4| F2 z||\
